!!!!SEGMENT: pl-lzu--m-15111--001-020_noskowski-zygmunt--spiewnik-dla-dzieci-op-34-20-macius.krn
!!!cenid: 18xx:4717
!!!COM: Noskowski, Zygmunt
!!!COM-rismID: pe106604
!!!CDT: 1846/05/02-1909/07/23
!!!CNT: Polish
!!!GTL: Śpiewnik dla dzieci, op. 34
!!!OTL: 20. Maciuś
!!!OMV: 020
!!!PDT: 1890
!!!AGN: Secular; Song; Children
!!!YEC: Copyright 2022 Narodowy Instytut Fryderyka Chopina (https://polishscores.org)
!!!YEM: License CC-BY-4.0 (https://creativecommons.org/licenses/by/4.0)
!!!SMS-siglum: PL-LŹu
!!!SMS-shelfmark: M 15111
!!!SMS-variant:
!!!SMS-altvar:
!!!SMS-shelfwork: 001-020 G
!!!NIFC-rismSourceID: 1001234040
!!!NIFC-rismChildID: 1001234040
!!!NIFC-islandoraID: pl-lzu:5455
!!!URL-pdf-islandora: https://repozytorium.nifc.pl/islandora/object/pl-lzu%3A5455/datastream/PDF/view
!!!URL-scan: https://polish.musicsources.pl/pl/lokalizacje/galeria/druki-muzyczne/23228/27 @EN{Scan on Polish Music Sources Website} @PL{Skany w portalu Dziedzictwo Muzyki Polskiej w otwartym dostępie}
!!!IIIF:
!!!ONB-nifc:
!!!OMD: Moderato con melancolia.
!!!AIN: 1 piano 1 vox
!!!key: g
**kern	**kern	**dynam	**kern	**text	**text	**text	**dynam
*part2	*part2	*part2	*part1	*part1	*part1	*part1	*part1
*staff3	*staff2	*	*staff1	*staff1	*staff1	*staff1	*
*ICklav	*ICklav	*	*ICvox	*	*	*	*
*Ipiano	*Ipiano	*	*Ivox	*	*	*	*
*I"[Piano]	*I"[Piano]	*	*I"[Voice]	*	*	*	*
*I'pf	*I'pf	*	*I'V	*	*	*	*
*clefF4	*clefG2	*	*clefG2	*	*	*	*
*k[b-e-]	*k[b-e-]	*	*k[b-e-]	*	*	*	*
*g:	*g:	*	*g:	*	*	*	*
*M3/4	*M3/4	*	*M3/4	*	*	*	*
=1	=1	=1	=1	=1	=1	=1	=1
*	*	*	*	*vv:1	*vv:2	*vv:3	*
!	!LO:TX:a:i:t=Umiarkowanie, z tęsknotą.	!	!	!	!	!	!LO:DY:a
(8G\L	(<8g/L	p	8g/	A	A	Oj	p
8A\J	8a/J	.	8a/	po	i	wy-	.
4.B-\	4.b-\	.	4.b-\	łą-	zkąd-	-cią-	.
8c\	8cc\	.	8cc\	-ce,	-że	-łem	.
=2	=2	=2	=2	=2	=2	=2	=2
8d\L	8dd\L	.	8dd\	po	ty,	ją,	.
8e-\J	8ee-\J	.	8ee-\	zie-	Ma-	pa-	.
4.d\	4.dd\	.	4.dd\	-lo-	-ciu-	-ni-	.
8c\	8cc\	.	8cc,\	-nej,	-siu,	-czu,	.
=3	=3	=3	=3	=3	=3	=3	=3
8B-\L	8b-/L	.	8b-/	Ma-	Tę	Z krzy-	.
8A\J	8a/J	.	8a/	-ciuś	fu-	-wej	.
4G\	4g/	.	4g/	ow-	-jar-	wierz-	.
8A\L	8a/L	.	(8a/L	-ce	-kę	-by	.
8F#X\J	8f#X/J	.	8f#X/J)	.	.	.	.
=4	=4	=4	=4	=4	=4	=4	=4
2.D\)	2.d/)	.	2.d/	gna,	masz,	tej,	.
!!LO:PB:g=original
=5	=5	=5	=5	=5	=5	=5	=5
2G 2C\	(8e-L 8c/	.	8e-/	Na	Że	Co	.
.	8fJ 8d/	.	8f/	wierz-	tak	wy-	.
.	4.g 4.e-/	.	4.g/	-bo-	na	-ro-	.
4F 4FF/	.	.	.	.	.	.	.
.	8a 8e-/)	.	8a/	-wej	niej,	-sła	.
=6	=6	=6	=6	=6	=6	=6	=6
*	*^	*	*	*	*	*	*
2F 2BB-\	8b-/L	(2d\	.	8b-/	fu-	za	na	.
.	8a/J	.	.	8a/	-ja-	ow-	mo-	.
.	4b-/	.	.	4b-/	-recz-	-ca-	-gi-	.
4F 4D\	4f 4B-/)	4ryy	.	4f,/	-ce	-mi	-le	.
=7	=7	=7	=7	=7	=7	=7	=7	=7
4E-\	(<8g/L	4B-\	.	8g/	Ża-	Ża-	Ma-	.
.	8f/J)	.	<	8f/	-ło-	-ło-	-tu-	.
4G\	4e- 4B-/	2ryy	[	4e-/	-śli-	-śli-	-leń-	.
(4G (4C\	(4b- (4e-/	.	.	4b-/	-wie	-wie	-ki	.
.	.	.	>	.	.	.	.	.
*	*v	*v	*	*	*	*	*	*
=8	=8	=8	=8	=8	=8	=8	=8
2F#X 2D\))	2a 2d/))	]	2a/	gra.	grasz?	mej.	.
4r	8r	.	8r	.	.	.	.
!	!LO:TX:t=P:problem=początek łuku na dole	!	!	!	!	!	!
.	(8a/	.	8a/	Dla	Dla	Dla	.
!!LO:LB:g=original
=9	=9	=9	=9	=9	=9	=9	=9
!	!	!	!	!	!	!	!LO:DY:a
4FF#X/	4dd\	mf	4dd\	Bo-	Bo-	Bo-	mf
4c 4A 4D\	4cc 4d/)	.	4cc\	-ga!	-ga!	-ga!	.
4r	8r	.	8r	.	.	.	.
.	(8a/	.	8a/	Dla	Dla	Dla	.
=10	=10	=10	=10	=10	=10	=10	=10
4GG/	4b-/	.	4b-/	Bo-	Bo-	Bo-	.
4B- 4G 4D\	4g 4d/)	.	4g/	-ga!	-ga!	-ga!	.
4r	4r	.	4r	.	.	.	.
=11	=11	=11	=11	=11	=11	=11	=11
*	*^	*	*	*	*	*	*
!	!	!	!	!	!	!	!	!LO:DY:a
4DD/	(8g/L	2ryy	p	8g/	Ża-	Ża-	Ma-	p
.	8f#X/J	.	.	8f#X/	-ło-	-ło-	-tu-	.
4F#X 4D\	4d/)	.	.	4d/	-śli-	-śli-	-leń-	.
4F# 4D\	(<8b-/L	4c\	.	(8b-/L	-wie	-wie	-ki	.
.	8a/J)	.	.	8a/J)	.	.	.	.
*	*v	*v	*	*	*	*	*	*
=12	=12	=12	=12	=12	=12	=12	=12
4G\	2g 2B-/	.	2g/	gra.	grasz?	mej!	.
4GG/	.	.	.	.	.	.	.
8r	8r	.	4r	.	.	.	.
(8d\	(8dd\	pp	.	.	.	.	.
!!LO:LB:g=original
=13	=13	=13	=13	=13	=13	=13	=13
8g\L	8gg\L	.	2.r	.	.	.	.
8f#X\	8ff#X\	.	.	.	.	.	.
8d\	8dd\	.	.	.	.	.	.
8e-\J	8ee-\J	.	.	.	.	.	.
4c\)	4cc\)	.	.	.	.	.	.
=14	=14	=14	=14	=14	=14	=14	=14
(8f#X\L	(8ff#X\L	.	2.r	.	.	.	.
8e-\	8ee-\	.	.	.	.	.	.
8c\	8cc\	.	.	.	.	.	.
8d\J	8dd\J	.	.	.	.	.	.
4B-\)	4b-\)	.	.	.	.	.	.
=15	=15	=15	=15	=15	=15	=15	=15
(8e-\L	(8ee-\L	.	2.r	.	.	.	.
8d\J	8dd\	.	.	.	.	.	.
8A\)	8a\	.	.	.	.	.	.
8r	8cc\J)	.	.	.	.	.	.
4D\	(8dL 8c/	.	.	.	.	.	.
.	8f#X/J)	.	.	.	.	.	.
=16	=16	=16	=16	=16	=16	=16	=16
2D 2GG/	2g 2B-/	.	2.r	.	.	.	.
4r	4r	.	.	.	.	.	.
==:|!	==:|!	==:|!	==:|!	==:|!	==:|!	==:|!	==:|!
*-	*-	*-	*-	*-	*-	*-	*-
!!!system-decoration: vox{klav}
!!!RDF**kern: < = below
!!!ENC: Andrzej Gręziak
!!!END: 2025-03-05
!!!EED: Andrzej Kubiczek
!!!EEV: 2025-03-20
